svgs/getir.svg

<svg xmlns="http://www.w3.org/2000/svg" viewBox="0 0 192 192"><path d="M52.025 91.616s1.517-26.114-17.631-26.114-18.39 26.799-18.39 26.799c0 4.234.497 7.809 1.198 10.762 1.913 8.041 7.006 13.983 13.055 14.81 6.865.952 11.786-4.225 11.786-4.225v9.971c0 1.663-.223 3.326-.765 4.812-2.205 6.039-7.292 5.79-10.798 4.758-1.721-.507-3.34-1.521-4.857-2.757-1.402-1.147-3.755-2.268-5.762.632-3.092 4.465-.651 7.569-.651 7.569 2.684 4.367 7.924 6.182 11.404 6.92 2.378.507 4.8.614 7.184.16 15.049-2.829 14.234-22.601 14.234-22.601V91.616Zm-17.739 13.627c-4.494 0-8.14-6.307-8.14-14.081 0-7.773 3.646-14.08 8.14-14.08 4.493 0 8.139 6.307 8.139 14.08 0 7.774-3.646 14.081-8.139 14.081Zm56.986 4.643c-1.052-1.717-2.735-3.203-4.278-2.108-.51.364-1.013.738-1.606 1.094-1.555.925-4.781 1.601-6.546 1.921-1.039.187-2.091.213-3.124-.027-7.234-1.654-7.094-11.892-7.094-11.892h12.583c7.617.48 10.791-4.394 12.085-9.108 1.479-5.363.727-11.456-1.797-15.993-2.531-4.554-7.407-9.259-16.637-8.28-17.141 1.814-16.873 29.903-16.873 29.903.217 12.186 5.157 20.138 5.157 20.138s4.124 7.266 13.94 7.266c9.817 0 14.54-6.964 14.54-6.964 1.524-2.517.752-4.145-.35-5.95Zm-8.179-28.881c.625 1.165 1.052 2.65.733 4.349-.306 1.628-1.236 2.873-2.377 3.416-1.919.916-5.794 2.161-10.142.293-1.51-.649-2.154-3.122-1.345-5.016 1.262-2.98 3.799-6.645 8.536-6.28 1.791.134 3.524 1.237 4.595 3.238Zm18.397 28.285c-.816-2.927-1.186-6.058-1.186-9.197V58.537s.064-3.451 1.205-6.867c1.249-3.753 4.111-6.039 7.056-5.621 1.205.169 2.237.756 2.237 2.268v13.458s-.286 4.26 2.199 4.26c2.486 0 7.407-.169 7.407-.169s3.213-.622.491 6.582c0 0-1.746 4.43-6.1 4.545h-3.64v19.986s-.548 13.396 6.61 13.796h3.621c.529 0 1.052-.036 1.574-.071.989-.054 3.137.462.944 6.715 0 0-2.441 5.39-8.79 5.39h-.191c-5.814-.089-10.913-5.212-13.189-12.674-.083-.285-.166-.561-.248-.845Zm34.701-62.85c2.855 0 5.17 3.23 5.17 7.214 0 3.984-2.315 7.213-5.17 7.213s-5.169-3.229-5.169-7.213 2.314-7.214 5.169-7.214Zm-5.616 31.852s-.707-7.801 3.258-9.989c0 0 6.565-3.326 6.565 1.441v35.961s-.178 5.586 2.754 5.586h2.607s3.091-.738 1.058 6.475c0 0-1.179 5.052-7.407 5.052-1.555 0-2.887-.507-4.016-1.281-3.047-2.081-4.863-6.564-4.857-11.296Zm21.756 33.915V91.785c0-4.563.599-9.108 1.893-13.297 1.696-5.497 4.813-11.314 10.422-11.314h4.902c1.408 0 2.811-.107 4.213-.16 1.218-.054 3.053.569 1.842 5.23-1.734 6.662-6.457 6.128-6.457 6.128s-6.941.907-6.941 8.93v30.838c0 .756.031 1.512.044 2.268.019.854-.172 2.392-1.778 2.392-2.225 0-7.758-.151-8.14-10.593Z"/></svg>

<svg
    xmlns="http://www.w3.org/2000/svg"
    viewBox="0 0 192 192"
    id="vector">
    <path
        id="path"
        d="M 52.025 91.616 C 52.025 91.616 53.542 65.502 34.394 65.502 C 15.246 65.502 16.004 92.301 16.004 92.301 C 16.004 96.535 16.501 100.11 17.202 103.063 C 19.115 111.104 24.208 117.046 30.257 117.873 C 37.122 118.825 42.043 113.648 42.043 113.648 L 42.043 123.619 C 42.043 125.282 41.82 126.945 41.278 128.431 C 39.073 134.47 33.986 134.221 30.48 133.189 C 28.759 132.682 27.14 131.668 25.623 130.432 C 24.221 129.285 21.868 128.164 19.861 131.064 C 16.769 135.529 19.21 138.633 19.21 138.633 C 21.894 143 27.134 144.815 30.614 145.553 C 32.992 146.06 35.414 146.167 37.798 145.713 C 52.847 142.884 52.032 123.112 52.032 123.112 L 52.032 91.616 Z M 34.286 105.243 C 29.792 105.243 26.146 98.936 26.146 91.162 C 26.146 83.389 29.792 77.082 34.286 77.082 C 38.779 77.082 42.425 83.389 42.425 91.162 C 42.425 98.936 38.779 105.243 34.286 105.243 Z M 91.272 109.886 C 90.22 108.169 88.537 106.683 86.994 107.778 C 86.484 108.142 85.981 108.516 85.388 108.872 C 83.833 109.797 80.607 110.473 78.842 110.793 C 77.803 110.98 76.751 111.006 75.718 110.766 C 68.484 109.112 68.624 98.874 68.624 98.874 L 81.207 98.874 C 88.824 99.354 91.998 94.48 93.292 89.766 C 94.771 84.403 94.019 78.31 91.495 73.773 C 88.964 69.219 84.088 64.514 74.858 65.493 C 57.717 67.307 57.985 95.396 57.985 95.396 C 58.202 107.582 63.142 115.534 63.142 115.534 C 63.142 115.534 67.266 122.8 77.082 122.8 C 86.899 122.8 91.622 115.836 91.622 115.836 C 93.146 113.319 92.374 111.691 91.272 109.886 Z M 83.093 81.005 C 83.718 82.17 84.145 83.655 83.826 85.354 C 83.52 86.982 82.59 88.227 81.449 88.77 C 79.53 89.686 75.655 90.931 71.307 89.063 C 69.797 88.414 69.153 85.941 69.962 84.047 C 71.224 81.067 73.761 77.402 78.498 77.767 C 80.289 77.901 82.022 79.004 83.093 81.005 Z M 101.49 109.29 C 100.674 106.363 100.304 103.232 100.304 100.093 L 100.304 58.537 C 100.304 58.537 100.368 55.086 101.509 51.67 C 102.758 47.917 105.62 45.631 108.565 46.049 C 109.77 46.218 110.802 46.805 110.802 48.317 L 110.802 61.775 C 110.802 61.775 110.516 66.035 113.001 66.035 C 115.487 66.035 120.408 65.866 120.408 65.866 C 120.408 65.866 123.621 65.244 120.899 72.448 C 120.899 72.448 119.153 76.878 114.799 76.993 L 111.159 76.993 L 111.159 96.979 C 111.159 96.979 110.611 110.375 117.769 110.775 L 121.39 110.775 C 121.919 110.775 122.442 110.739 122.964 110.704 C 123.953 110.65 126.101 111.166 123.908 117.419 C 123.908 117.419 121.467 122.809 115.118 122.809 L 114.927 122.809 C 109.113 122.72 104.014 117.597 101.738 110.135 C 101.655 109.85 101.572 109.574 101.49 109.29 Z M 136.191 46.44 C 139.046 46.44 141.361 49.67 141.361 53.654 C 141.361 57.638 139.046 60.867 136.191 60.867 C 133.336 60.867 131.022 57.638 131.022 53.654 C 131.022 49.67 133.336 46.44 136.191 46.44 Z M 130.575 78.292 C 130.575 78.292 129.868 70.491 133.833 68.303 C 133.833 68.303 140.398 64.977 140.398 69.744 L 140.398 105.705 C 140.398 105.705 140.22 111.291 143.152 111.291 L 145.759 111.291 C 145.759 111.291 148.85 110.553 146.817 117.766 C 146.817 117.766 145.638 122.818 139.41 122.818 C 137.855 122.818 136.523 122.311 135.394 121.537 C 132.347 119.456 130.531 114.973 130.537 110.241 Z M 152.331 112.207 L 152.331 91.785 C 152.331 87.222 152.93 82.677 154.224 78.488 C 155.92 72.991 159.037 67.174 164.646 67.174 L 169.548 67.174 C 170.956 67.174 172.359 67.067 173.761 67.014 C 174.979 66.96 176.814 67.583 175.603 72.244 C 173.869 78.906 169.146 78.372 169.146 78.372 C 169.146 78.372 162.205 79.279 162.205 87.302 L 162.205 118.14 C 162.205 118.896 162.236 119.652 162.249 120.408 C 162.268 121.262 162.077 122.8 160.471 122.8 C 158.246 122.8 152.713 122.649 152.331 112.207 Z"
        fill="#000000"
        stroke-width="12"/>
</svg>
